actions/symbolic/edit-clear-all-symbolic.svg

<svg viewBox="0 0 16 16" xmlns="http://www.w3.org/2000/svg"><path d="m5.9996234 11.898345-3.5285184-3.4407825-.4711049-.4577538.4711049-.4577537 3.5285184-3.4407823h6.1675646.932816.299924.299924c.166351-.00291.300148.130889.300148.2971108v7.1999895c0 .166889-.133988.300401-.299924.300401h-.599991-.932816zm1.6605494-1.9497451 1.3394542-1.3065054 1.340599 1.3065054.659785-.6432394-1.3394543-1.3065054 1.3394543-1.3065055-.659785-.6432394-1.340599 1.3065055-1.3394542-1.3065055-.6597853.6432394 1.3394542 1.3065055-1.3394542 1.3065054z" fill="#bebebe"/></svg>

<?xml version="1.0" encoding="UTF-8" standalone="no"?>
<svg
   xmlns:dc="http://purl.org/dc/elements/1.1/"
   xmlns:cc="http://creativecommons.org/ns#"
   xmlns:rdf="http://www.w3.org/1999/02/22-rdf-syntax-ns#"
   xmlns:svg="http://www.w3.org/2000/svg"
   xmlns="http://www.w3.org/2000/svg"
   xmlns:sodipodi="http://sodipodi.sourceforge.net/DTD/sodipodi-0.dtd"
   xmlns:inkscape="http://www.inkscape.org/namespaces/inkscape"
   viewBox="0 0 16 16"
   id="svg2"
   version="1.1"
   inkscape:version="0.92.1 r15371"
   sodipodi:docname="edit-clear-all-symbolic.svg">
  <metadata
     id="metadata10">
    <rdf:RDF>
      <cc:Work
         rdf:about="">
        <dc:format>image/svg+xml</dc:format>
        <dc:type
           rdf:resource="http://purl.org/dc/dcmitype/StillImage" />
      </cc:Work>
    </rdf:RDF>
  </metadata>
  <sodipodi:namedview
     pagecolor="#ffffff"
     bordercolor="#666666"
     borderopacity="1"
     objecttolerance="10"
     gridtolerance="10"
     guidetolerance="10"
     inkscape:pageopacity="0"
     inkscape:pageshadow="2"
     inkscape:window-width="1600"
     inkscape:window-height="840"
     id="namedview8"
     showgrid="false"
     inkscape:zoom="20.59375"
     inkscape:cx="2.4071945"
     inkscape:cy="6.3145235"
     inkscape:current-layer="svg2"
     inkscape:window-x="0"
     inkscape:window-y="32"
     inkscape:window-maximized="1" />
  <defs
     id="defs3051">
    <style
       type="text/css"
       id="current-color-scheme">
      .ColorScheme-Text {
        color:#bebebe;
      }
      </style>
  </defs>
  <path
     style="color:#bebebe;fill:currentColor;fill-opacity:1;stroke:none;stroke-width:0.99999881"
     class="ColorScheme-Text"
     d="M 5.9996234,11.898345 2.471105,8.4575625 2.0000001,7.9998087 2.471105,7.542055 5.9996234,4.1012727 h 6.1675646 0.932816 0.299924 0.299924 C 13.866203,4.0983627 14,4.2321617 14,4.3983835 v 7.1999895 c 0,0.166889 -0.133988,0.300401 -0.299924,0.300401 H 13.100085 12.167269 Z M 7.6601728,9.9485999 8.999627,8.6420945 10.340226,9.9485999 11.000011,9.3053605 9.6605567,7.9988551 11.000011,6.6923496 10.340226,6.0491102 8.999627,7.3556157 7.6601728,6.0491102 7.0003875,6.6923496 8.3398417,7.9988551 7.0003875,9.3053605 Z"
     id="path6"
     inkscape:connector-curvature="0" />
</svg>
